X: 135015
Q: "Irish Reel."
M: 2/4
L: 1/16
K: D
|: (uAG) |\
(de) |\
f2fd g2ge | a2ag (fe)de |
f2fd g2ge | a2af g2fg |\
abaf gage | fgfd ecAG |\


